src/assets/email.svg

<?xml version="1.0" encoding="UTF-8"?>
<svg viewBox="0 0 32 26" version="1.1" xmlns="http://www.w3.org/2000/svg" xmlns:xlink="http://www.w3.org/1999/xlink">
    <!-- Generator: Sketch 48.2 (47327) - http://www.bohemiancoding.com/sketch -->
    
    <defs></defs>
    <g id="Page-1" stroke="none" stroke-width="1" fill="none" fill-rule="evenodd">
        <g id="Email" fill="#FFFFFF" fill-rule="nonzero">
            <path d="M16.53,18.4474 L31.83,3.14739 L31.83,1.37039 C31.83,0.550389 31.01,0.00438841 30.054,0.00438841 L1.776,0.00438841 C1.36395,-0.0254086 0.955326,0.0972992 0.62786,0.349168 C0.300393,0.601036 0.0769369,0.964491 0,1.37039 L0,3.14639 L15.3,18.4464 C15.4774,18.5795 15.6932,18.6514 15.915,18.6514 C16.1368,18.6514 16.3526,18.5795 16.53,18.4464 L16.53,18.4474 Z" id="path0_fill"></path>
            <path d="M17.486,20.6324 C17.0938,21.0463 16.5558,21.2913 15.986,21.3154 C15.4162,21.2913 14.8782,21.0463 14.486,20.6324 L0,6.28839 L0,23.6384 C0,24.4584 0.82,25.0044 1.776,25.0044 L30.055,25.0044 C30.467,25.0342 30.8757,24.9115 31.2031,24.6596 C31.5306,24.4077 31.7541,24.0443 31.831,23.6384 L31.831,6.28839 L17.486,20.6324 Z" id="path1_fill"></path>
        </g>
    </g>
</svg>

<svg viewBox="0 0 32 26" xmlns="http://www.w3.org/2000/svg"><g fill="#FFF" fill-rule="nonzero"><path d="M16.53 18.447l15.3-15.3V1.37c0-.82-.82-1.366-1.776-1.366H1.776A1.684 1.684 0 000 1.37v1.776l15.3 15.3a1.025 1.025 0 001.23 0v.001z"/><path d="M17.486 20.632c-.392.414-.93.66-1.5.683a2.194 2.194 0 01-1.5-.683L0 6.288v17.35c0 .82.82 1.366 1.776 1.366h28.279a1.684 1.684 0 001.776-1.366V6.288L17.486 20.632z"/></g></svg>
